!!!SOCIAL_FUNCTION:	war songs
!!!PDT:	1913
!!!OTL: No_88_War_Song.krn
!!!REG: Great_Lakes
!!!LANG: Non-Tone
!!!LING_GROUP: Algonquin
**kern	**kern
*staff2	*staff1
=1-	=1-
*clefF4	*clefF4
*k[b-e-a-d-]	*k[b-e-a-d-]
*M2/4	*M2/4
12GG^/	4e-\
12r	.
12GG/	.
12GG^/	8e-\L
12r	.
.	8e-\J
12GG/	.
=2	=2
12GG^/	12f\L
12r	12e-\
12GG/	12e-\J
12GG^/	4e-\
12r	.
12GG/	.
=3	=3
2r	4e-\
.	8e-\L
.	8e-\J
=4	=4
2r	12e-\L
.	12c\
.	12B-\J
.	[4A-\
=5	=5
2r	8A-\L]
.	8e-\J
.	8e-\L
.	8e-\J
=6	=6
2r	8.f\L
.	16e-\Jk
.	4e-\
=7	=7
2r	4e-\
.	8e-\L
.	8e-\J
=8	=8
2r	12e-\L
.	12c\
.	12B-\J
.	4A-\
=9	=9
=	=
2r	4B-\
.	8B-\L
.	8B-\J
=10	=10
2r	12B-\L
.	12A-\
.	12A-\J
.	4A-\
=11	=11
2r	4B-\
.	8B-\L
.	8B-\J
=12||	=12||
*M3/4	*M3/4
2.r	8.A-\L
.	16E-\Jk
.	4E-\
.	16D-\LK
.	[8.D-\J
=13||	=13||
*M2/4	*M2/4
2r	8D-\L]
.	8E-\J
.	8E-\L
.	8E-\J
=14	=14
2r	12F\L
.	12E-\
.	12E-\J
.	[4D-\
=15	=15
2r	8D-\L]
.	8E-\J
.	8E-\L
.	8E-\J
=16	=16
2r	12F\L
.	12E-\
.	12E-\J
.	4E-\
=17	=17
2r	4.E-\
.	8E-\
=18||	=18||
*M3/4	*M3/4
2.r	2.E-\
==:|!	==:|!
*-	*-
